src/WeatherTwentyOne/Resources/Images/fluent_weather_rain_snow_20_filled.svg

<svg width="40" height="40" viewBox="0 0 40 40" fill="none" xmlns="http://www.w3.org/2000/svg">
<path d="M20 8C24.93 8 27.726 11.148 28.132 14.948H28.256C31.428 14.948 34 17.422 34 20.474C34 23.526 31.428 26 28.256 26H25.252C25.3025 26.1504 25.3165 26.3106 25.2928 26.4675C25.2691 26.6243 25.2085 26.7733 25.1159 26.9021C25.0233 27.0309 24.9013 27.1358 24.7602 27.2082C24.619 27.2805 24.4626 27.3183 24.304 27.3183C24.1454 27.3183 23.989 27.2805 23.8478 27.2082C23.7067 27.1358 23.5847 27.0309 23.4921 26.9021C23.3995 26.7733 23.3389 26.6243 23.3152 26.4675C23.2915 26.3106 23.3055 26.1504 23.356 26L14.882 25.998L11.89 31.49C11.7704 31.7086 11.5735 31.8747 11.3378 31.9557C11.1022 32.0367 10.8448 32.0268 10.616 31.9279C10.3873 31.8291 10.2037 31.6484 10.1012 31.4213C9.99875 31.1941 9.98476 30.9369 10.062 30.7L10.134 30.534L12.604 25.998L11.744 26C8.572 26 6 23.526 6 20.474C6 17.422 8.572 14.948 11.744 14.948H11.868C12.278 11.122 15.07 8 20 8ZM23 30C23.2652 30 23.5196 30.1054 23.7071 30.2929C23.8946 30.4804 24 30.7348 24 31C24 31.2652 23.8946 31.5196 23.7071 31.7071C23.5196 31.8946 23.2652 32 23 32C22.7348 32 22.4804 31.8946 22.2929 31.7071C22.1054 31.5196 22 31.2652 22 31C22 30.7348 22.1054 30.4804 22.2929 30.2929C22.4804 30.1054 22.7348 30 23 30ZM18.604 28.12C18.8084 28.2287 18.9677 28.4062 19.0537 28.621C19.1397 28.8359 19.1469 29.0743 19.074 29.294L19.002 29.458L17.878 31.486C17.7486 31.7162 17.5341 31.8864 17.2805 31.9601C17.0269 32.0338 16.7546 32.005 16.522 31.88C16.3173 31.7717 16.1575 31.5943 16.0711 31.3794C15.9847 31.1645 15.9772 30.9259 16.05 30.706L16.122 30.542L17.246 28.514C17.3754 28.2833 17.5903 28.1127 17.8443 28.0389C18.0984 27.9652 18.3712 27.9944 18.604 28.12V28.12ZM27 28C27.2652 28 27.5196 28.1054 27.7071 28.2929C27.8946 28.4804 28 28.7348 28 29C28 29.2652 27.8946 29.5196 27.7071 29.7071C27.5196 29.8946 27.2652 30 27 30C26.7348 30 26.4804 29.8946 26.2929 29.7071C26.1054 29.5196 26 29.2652 26 29C26 28.7348 26.1054 28.4804 26.2929 28.2929C26.4804 28.1054 26.7348 28 27 28Z" fill="url(#paint0_linear)"/>
<defs>
<linearGradient id="paint0_linear" x1="10.7814" y1="12.3409" x2="24.6204" y2="27.4698" gradientUnits="userSpaceOnUse">
<stop offset="0.10243" stop-color="#28C2D1"/>
<stop offset="0.925347" stop-color="#4931DE"/>
</linearGradient>
</defs>
</svg>

<svg width="40" height="40" fill="none" xmlns="http://www.w3.org/2000/svg">
    <path
        d="M20 8c4.93 0 7.726 3.148 8.132 6.948h.124c3.172 0 5.744 2.474 5.744 5.526C34 23.526 31.428 26 28.256 26h-3.004a1 1 0 11-1.896 0l-8.474-.002-2.992 5.492a1 1 0 01-1.828-.79l.072-.166 2.47-4.536-.86.002C8.572 26 6 23.526 6 20.474c0-3.052 2.572-5.526 5.744-5.526h.124C12.278 11.122 15.07 8 20 8zm3 22a1 1 0 110 2 1 1 0 010-2zm-4.396-1.88a.98.98 0 01.47 1.174l-.072.164-1.124 2.028a1.008 1.008 0 01-1.807-.107.98.98 0 01-.021-.673l.072-.164 1.124-2.028a1.009 1.009 0 011.358-.394zM27 28a1 1 0 110 2 1 1 0 010-2z"
        fill="url(#prefix__paint0_linear)" />
    <defs>
        <linearGradient id="prefix__paint0_linear" x1="10.781" y1="12.341" x2="24.62" y2="27.47"
            gradientUnits="userSpaceOnUse">
            <stop offset=".102" stop-color="#28C2D1" />
            <stop offset=".925" stop-color="#4931DE" />
        </linearGradient>
    </defs>
</svg>
